**kern	**silbe
*ICvox	*
*E:	*
*M4/4	*
*clefF4	*
r;	.
=1	=1
1r	.
=2	=2
1r	.
=3	=3
1r	.
=4	=4
4r	.
8c#	I
4e	got
8c#	my
4e	mind
=5	=5
2e	set
8f#	on
4e	_
8e	you
=6	=6
4r	.
8E	I
4E	got
8E	my
4F#	mind
=7	=7
2G#	set
4.F#	on
8E	you
=8	=8
4r	.
8c#	I
4e	got
8c#	my
4e	mind
=9	=9
4.e	set
8g	on
8f#	_
4e	_
8e	you
=10	=10
4r	.
8r	.
4E	Got
8E	my
4F#	mind
=11	=11
4.G#	set
8F#	_
4.F#	on
8E	you
=12	=12
8r	.
8c#	But
8B	it's
8c#	gon-
8B	-na
8c#	take
8B	uh
8c#	mo-
=13	=13
4e	-ney
4r	.
2r	.
=14	=14
4r	.
8r	.
8B	A
4g#	whole
8f#	lot
8f#	of
=15	=15
8e	spend-
4e	-ing
8c#	mon-
8B	-ey
8c#	_
8B	_
8r	.
=16	=16
4r	.
8r	.
8B	It's
8c#	gon-
8B	-na
8B	take
8r	.
=17	=17
1024%85G#	plen-
1024%85E	-ty
512%43E	a
8E	mon-
8E	-ey
2r	.
=18	=18
4.r	.
8B	to
8A	do
4B	it
[8G#	right
=19	=19
8G#]	_
4E	child
8r	.
2r	.
=20	=20
4r	.
8r	.
8B	It's
8B	gon-
8B	-na
4c#	take
=21	=21
[2e	time
8e]	_
8f#	_
4r	.
=22	=22
2r	.
4g#	whole
8f#	lot
8f#	of
=23	=23
8e	pre-
4e	-cious
8c#	time
8B	_
8c#	_
8B	_
8r	.
=24	=24
4r	.
8r	.
8B	It's
8c#	gon-
8B	-na
8B	take
8r	.
=25	=25
512%85G#	pat-
1024%171E	-ience
1024%171E	and
4E	time
4r	.
=26	=26
4r	.
8B	Mmm
4.A	_
8r	.
8B	To
=27	=27
8G#	do
8G#	it
8r	.
8B	To
8A	do
8A	it
8r	.
8B	To
=28	=28
8G#	do
8G#	it
8r	.
8B	To
8A	do
8A	it
8r	.
8B	To
=29	=29
8G#	do
8G#	it
8r	.
8B	To
8A	do
4A	it
8E	right
=30	=30
4r	.
2E	child
4r	.
=31	=31
4r	.
8B	I
4c#	got
8e	my
4e	mind
=32	=32
2e	set
4f#	on
8e	_
8e	you
=33	=33
4r	.
8E	I
4E	got
8E	my
4F#	mind
=34	=34
[4G#	set
1024%85G#]	_
1024%85F#	_
512%43G#	_
4.F#	on
8E	you
=35	=35
4r	.
8c#	I
4e	got
8c#	my
4e	mind
=36	=36
4.e	set
8g	on
8f#	_
4e	_
8e	you
=37	=37
4r	.
8G#	I
4F#	Got
8E	my
4F#	mind
=38	=38
4.G#	set
8F#	_
4.F#	on
8E	you
=39	=39
2r	.
4.r	.
8E	And
=40	=40
4G#	this
8G#	time
8F#	I
8G#	know
4G#	it's
[8A	real
=41	=41
4A]	_
4r	.
4.r	.
8E	The
=42	=42
4G#	feel-
4G#	-ing
8G#	that
4G#	I
[8A	feel
=43	=43
4A]	_
4r	.
4.r	.
8E	I
=44	=44
4G#	know
8G#	if
8F#	I
8G#	put
8F#	my
4G#	mind
=45	=45
4A	to
8E	it
8r	.
4.r	.
8G#	I
=46	=46
4G#	know
8G#	that
8G#	I
8G#	real-
8G#	-ly
8G#	could
[8c#	do
=47	=47
8c#]	_
16d#	_
16c#	_
8B	_
4.B	it
4r	.
=48	=48
4r	.
8B	I
4c#	got
8e	my
4e	mind
=49	=49
2e	set
8f#	on
4e	_
8e	you
=50	=50
1r	.
=51	=51
2g#	set
4.f#	on
8e	you
=52	=52
4r	.
8c#	I
4e	got
8c#	my
4e	mind
=53	=53
4.e	set
8g	on
8f#	_
4e	_
8e	you
=54	=54
1r	.
=55	=55
2g#	set
4.f#	on
8e	you
=56	=56
8r	.
8c#	But
8B	it's
8c#	gon-
8B	-na
8c#	take
8B	uh
8c#	mo-
=57	=57
4e	-ney
4r	.
2r	.
=58	=58
2r	.
4g#	whole
8f#	lot
8f#	of
=59	=59
8e	spend-
4e	-ing
8c#	mon-
8B	-ey
8c#	_
8B	_
8r	.
=60	=60
4r	.
8r	.
8B	It's
8B	gon-
8B	-na
8c#	take
8r	.
=61	=61
1024%85G#	plen-
1024%85E	-ty
512%43E	a
8E	mon-
8E	-ey
2r	.
=62	=62
4.r	.
8B	to
8A	do
4B	it
[8G#	right
=63	=63
8G#]	_
4E	child
8F#	_
2r	.
=64	=64
4r	.
8r	.
8B	It's
8B	gon-
8B	-na
4c#	take
=65	=65
[2e	time
4.e]	_
8f#	_
=66	=66
2r	.
4g#	whole
8f#	lot
8f#	of
=67	=67
8e	pre-
4e	-cious
8c#	time
8c#	_
8B	_
4r	.
=68	=68
4r	.
8r	.
8B	It's
8c#	gon-
8B	-na
8c#	take
8r	.
=69	=69
8G#	pat-
8E	-tience
8E	and
4E	time
4F#	_
8r	.
=70	=70
4r	.
8B	Mmm
4.A	_
8r	.
8B	To
=71	=71
8G#	do
8G#	it
8r	.
8B	To
8A	do
8A	it
8r	.
8B	To
=72	=72
8G#	do
8G#	it
8r	.
8B	To
8A	do
8A	it
8r	.
8B	To
=73	=73
8G#	do
8G#	it
8r	.
8B	To
8c#	do
4e	it
8e	right
=74	=74
4e	_
2r	.
4r	.
=75	=75
1r	.
=76	=76
1r	.
=77	=77
1r	.
=78	=78
1r	.
=79	=79
1r	.
=80	=80
1r	.
=81	=81
1r	.
=82	=82
1r	.
=83	=83
4r	.
8c#	I
4e	got
8c#	my
4e	mind
=84	=84
4.e	set
4f#	on
4e	_
8e	you
=85	=85
4r	.
8G#	I
4F#	got
8E	my
4F#	mind
=86	=86
4G#	set
4r	.
4.F#	on
8E	you
=87	=87
4r	.
8c#	I
4e	got
8c#	my
4e	mind
=88	=88
2e	set
8f#	on
4e	_
8e	you
=89	=89
4r	.
8G#	I
4F#	got
8E	my
4F#	mind
=90	=90
4.G#	set
8F#	_
4.F#	on
8E	you
=91	=91
2r	.
4.r	.
8E	And
=92	=92
4G#	this
8G#	time
8F#	I
8G#	know
4G#	it's
[8A	real
=93	=93
4A]	_
4r	.
4.r	.
8E	The
=94	=94
4G#	feel-
4G#	-ing
8G#	that
4G#	I
[8A	feel
=95	=95
4A]	_
4r	.
4.r	.
8E	I
=96	=96
4G#	know
8G#	if
8F#	I
8G#	put
8F#	my
4G#	mind
=97	=97
4A	to
8E	it
8r	.
4.r	.
8G#	I
=98	=98
4G#	know
8G#	that
8G#	I
8G#	real-
8G#	-ly
8G#	could
[8c#	do
=99	=99
8c#]	_
16d#	_
16c#	_
8B	_
4B	it
8c#	_
4r	.
=100	=100
8r	.
8c#	But
8B	it's
8c#	gon-
8B	-na
8c#	take
8B	uh
8c#	mo-
=101	=101
[2e	-ney
4.e]	_
8f#	_
=102	=102
4.r	.
8B	A
4g#	whole
8f#	lot
8f#	of
=103	=103
8e	spend-
4e	-ing
8c#	mon-
8B	-ey
8c#	_
8B	_
8r	.
=104	=104
4r	.
8r	.
8B	It's
8c#	gon-
8B	-na
8c#	take
8r	.
=105	=105
1024%85G#	plen-
1024%85E	-ty
512%43E	a
8E	mon-
8E	-ey
4F#	_
4r	.
=106	=106
4.r	.
8B	to
8A	do
4B	it
[8G#	right
=107	=107
8G#]	_
4.E	child
2r	.
=108	=108
4r	.
8r	.
8B	It's
8B	gon-
8B	-na
8c#	take
8B	a
=109	=109
[2e	time
4.e]	_
8f#	_
=110	=110
4.r	.
8B	A
4g#	whole
8f#	lot
8f#	of
=111	=111
8e	pre-
4e	-cious
8c#	time
8c#	_
8B	_
4r	.
=112	=112
4r	.
8r	.
8B	It's
8c#	gon-
8B	-na
8B	take
8r	.
=113	=113
512%85G#	pat-
1024%171E	-ience
1024%171E	and
4E	time
4r	.
=114	=114
4r	.
8B	Mmm
4.A	_
8r	.
8B	To
=115	=115
8G#	do
8G#	it
8r	.
8B	To
8A	do
8A	it
8r	.
8B	To
=116	=116
8G#	do
8G#	it
8r	.
8B	To
8A	do
8A	it
8r	.
8B	To
=117	=117
8G#	do
8G#	it
8r	.
8B	To
8c#	do
4e	it
8e	right
=118	=118
4e	_
2r	.
4r	.
=119	=119
1r	.
=120	=120
2c#	Set
4.B#	on
8c#	you
=121	=121
1r	.
=122	=122
2g#	set
4.f#	on
8e	you
=123	=123
1r	.
=124	=124
1r	.
=125	=125
1r	.
=126	=126
1r	.
=127	=127
1r	.
=128	=128
2c#	Set
4.B#	on
8c#	you
=129	=129
1r	.
=130	=130
2g#	set
4.f#	on
8e	you
=131	=131
1r	.
=132	=132
2c#	Set
4.B#	on
8c#	you
=133	=133
1r	.
=134	=134
2g#	set
4.f#	on
8e	you
=135	=135
1r	.
=136	=136
4.e	set
8g	on
8f#	_
4e	_
8e	you
=137	=137
1r	.
=138	=138
4g#	Set
8f#	_
8e	_
4e	on
8c#	you
8B	_
=139	=139
2r	.
4.r	.
8B	I
=140	=140
8e	set
8e	my
4g	mind
8e	_
4e	on
8e	you
=141	=141
2r	.
8r	.
8e	It
4e	got
=142	=142
4g#	Set
8f#	_
8e	_
4.f#	on
8e	you
=143	=143
1r	.
r;	.
r;	.
*-	*-
!!!ENC: Nathaniel Condit-Schultz